; Generated G-code for geometry patterns
; Date: 2026-02-27
G21 ; Set units to millimeters
G90 ; Use absolute coordinates
M82 ; Use absolute distances for extrusion
G1 Z0.200 F1000

; Rectangle 1 (Rectilinear 0°)
G0 X6.117 Y12.000
G1 X6.117 Y24.000 F1000
G0 X8.117 Y12.000
G1 X8.117 Y24.000 F1000
G0 X10.117 Y12.000
G1 X10.117 Y24.000 F1000
G0 X12.117 Y12.000
G1 X12.117 Y24.000 F1000
G0 X14.117 Y12.000
G1 X14.117 Y24.000 F1000
G0 X16.117 Y12.000
G1 X16.117 Y24.000 F1000
G0 X18.117 Y13.055
G1 X18.117 Y24.000 F1000
G0 X20.117 Y14.844
G1 X20.117 Y22.528 F1000
G0 X22.117 Y16.633
G1 X22.117 Y19.387 F1000

; Rectangle 1 (Rectilinear 0°)
G0 X39.359 Y21.553
G1 X39.359 Y24.000 F1000
G0 X41.359 Y18.571
G1 X41.359 Y24.000 F1000
G0 X43.359 Y15.588
G1 X43.359 Y24.000 F1000
G0 X45.359 Y12.606
G1 X45.359 Y24.000 F1000
G0 X47.359 Y12.000
G1 X47.359 Y24.000 F1000
G0 X49.359 Y12.000
G1 X49.359 Y24.000 F1000
G0 X51.359 Y12.000
G1 X51.359 Y24.000 F1000

; Rectangle 2 (Honeycomb)
G0 X22.928 Y24.000
G1 X19.464 Y26.000 F1000
G0 X19.464 Y26.000
G1 X18.330 Y25.345 F1000
G0 X29.856 Y24.000
G1 X26.392 Y26.000 F1000
G0 X26.392 Y26.000
G1 X22.928 Y24.000 F1000
G0 X36.785 Y24.000
G1 X33.321 Y26.000 F1000
G0 X33.321 Y26.000
G1 X29.856 Y24.000 F1000
G0 X19.464 Y30.000
G1 X18.515 Y30.548 F1000
G0 X18.330 Y25.345
G1 X19.464 Y26.000 F1000
G0 X19.464 Y26.000
G1 X19.464 Y30.000 F1000
G0 X26.392 Y30.000
G1 X22.928 Y32.000 F1000
G0 X22.928 Y32.000
G1 X19.464 Y30.000 F1000
G0 X19.464 Y30.000
G1 X19.464 Y26.000 F1000
G0 X19.464 Y26.000
G1 X22.928 Y24.000 F1000
G0 X22.928 Y24.000
G1 X26.392 Y26.000 F1000
G0 X26.392 Y26.000
G1 X26.392 Y30.000 F1000
G0 X33.321 Y30.000
G1 X29.856 Y32.000 F1000
G0 X29.856 Y32.000
G1 X26.392 Y30.000 F1000
G0 X26.392 Y30.000
G1 X26.392 Y26.000 F1000
G0 X26.392 Y26.000
G1 X29.856 Y24.000 F1000
G0 X29.856 Y24.000
G1 X33.321 Y26.000 F1000
G0 X33.321 Y26.000
G1 X33.321 Y30.000 F1000
G0 X33.590 Y30.156
G1 X33.321 Y30.000 F1000
G0 X33.321 Y30.000
G1 X33.321 Y26.000 F1000
G0 X33.321 Y26.000
G1 X36.785 Y24.000 F1000
G0 X18.515 Y30.548
G1 X19.464 Y30.000 F1000
G0 X19.464 Y30.000
G1 X22.928 Y32.000 F1000
G0 X22.928 Y32.000
G1 X22.928 Y33.264 F1000
G0 X22.928 Y33.264
G1 X22.928 Y32.000 F1000
G0 X22.928 Y32.000
G1 X26.392 Y30.000 F1000
G0 X26.392 Y30.000
G1 X29.856 Y32.000 F1000
G0 X29.856 Y32.000
G1 X29.856 Y35.723 F1000
G0 X29.856 Y35.723
G1 X29.856 Y32.000 F1000
G0 X29.856 Y32.000
G1 X33.321 Y30.000 F1000
G0 X33.321 Y30.000
G1 X33.590 Y30.156 F1000

; Rectangle 2 (Honeycomb)
G0 X43.040 Y-7.414
G1 X42.322 Y-7.000 F1000
G0 X42.322 Y-7.000
G1 X39.847 Y-8.429 F1000
G0 X42.322 Y-3.000
G1 X38.858 Y-1.000 F1000
G0 X38.858 Y-1.000
G1 X36.121 Y-2.580 F1000
G0 X39.847 Y-8.429
G1 X42.322 Y-7.000 F1000
G0 X42.322 Y-7.000
G1 X42.322 Y-3.000 F1000
G0 X49.250 Y-3.000
G1 X45.786 Y-1.000 F1000
G0 X45.786 Y-1.000
G1 X42.322 Y-3.000 F1000
G0 X42.322 Y-3.000
G1 X42.322 Y-7.000 F1000
G0 X42.322 Y-7.000
G1 X43.040 Y-7.414 F1000
G0 X49.250 Y-3.934
G1 X49.250 Y-3.000 F1000
G0 X53.586 Y-1.503
G1 X52.714 Y-1.000 F1000
G0 X52.714 Y-1.000
G1 X49.250 Y-3.000 F1000
G0 X49.250 Y-3.000
G1 X49.250 Y-3.934 F1000
G0 X38.858 Y3.000
G1 X37.126 Y4.000 F1000
G0 X36.121 Y-2.580
G1 X38.858 Y-1.000 F1000
G0 X38.858 Y-1.000
G1 X38.858 Y3.000 F1000
G0 X45.786 Y3.000
G1 X42.322 Y5.000 F1000
G0 X42.322 Y5.000
G1 X38.858 Y3.000 F1000
G0 X38.858 Y3.000
G1 X38.858 Y-1.000 F1000
G0 X38.858 Y-1.000
G1 X42.322 Y-3.000 F1000
G0 X42.322 Y-3.000
G1 X45.786 Y-1.000 F1000
G0 X45.786 Y-1.000
G1 X45.786 Y3.000 F1000
G0 X51.225 Y3.860
G1 X49.250 Y5.000 F1000
G0 X49.250 Y5.000
G1 X45.786 Y3.000 F1000
G0 X45.786 Y3.000
G1 X45.786 Y-1.000 F1000
G0 X45.786 Y-1.000
G1 X49.250 Y-3.000 F1000
G0 X49.250 Y-3.000
G1 X52.714 Y-1.000 F1000
G0 X52.714 Y-1.000
G1 X52.714 Y1.639 F1000
G0 X52.714 Y1.639
G1 X52.714 Y-1.000 F1000
G0 X52.714 Y-1.000
G1 X53.586 Y-1.503 F1000
G0 X42.322 Y9.000
G1 X38.858 Y11.000 F1000
G0 X38.858 Y11.000
G1 X37.272 Y10.084 F1000
G0 X37.126 Y4.000
G1 X38.858 Y3.000 F1000
G0 X38.858 Y3.000
G1 X42.322 Y5.000 F1000
G0 X42.322 Y5.000
G1 X42.322 Y9.000 F1000
G0 X46.847 Y10.387
G1 X45.786 Y11.000 F1000
G0 X45.786 Y11.000
G1 X42.322 Y9.000 F1000
G0 X42.322 Y9.000
G1 X42.322 Y5.000 F1000
G0 X42.322 Y5.000
G1 X45.786 Y3.000 F1000
G0 X45.786 Y3.000
G1 X49.250 Y5.000 F1000
G0 X49.250 Y5.000
G1 X49.250 Y6.804 F1000
G0 X49.250 Y6.804
G1 X49.250 Y5.000 F1000
G0 X49.250 Y5.000
G1 X51.225 Y3.860 F1000
G0 X37.272 Y10.084
G1 X38.858 Y11.000 F1000
G0 X38.858 Y11.000
G1 X38.858 Y12.000 F1000
G0 X38.858 Y12.000
G1 X38.858 Y11.000 F1000
G0 X38.858 Y11.000
G1 X42.322 Y9.000 F1000
G0 X42.322 Y9.000
G1 X45.786 Y11.000 F1000
G0 X45.786 Y11.000
G1 X45.786 Y11.969 F1000
G0 X45.786 Y11.969
G1 X45.786 Y11.000 F1000
G0 X45.786 Y11.000
G1 X46.847 Y10.387 F1000

; Triangle (Spiral (15 turns))
G0 X19.965 Y8.000
G1 X19.987 Y8.004 F1000
G0 X19.987 Y8.004
G1 X20.006 Y8.015 F1000
G0 X20.006 Y8.015
G1 X20.022 Y8.033 F1000
G0 X20.022 Y8.033
G1 X20.033 Y8.057 F1000
G0 X20.033 Y8.057
G1 X20.036 Y8.085 F1000
G0 X20.036 Y8.085
G1 X20.031 Y8.115 F1000
G0 X20.031 Y8.115
G1 X20.018 Y8.146 F1000
G0 X20.018 Y8.146
G1 X19.996 Y8.175 F1000
G0 X19.996 Y8.175
G1 X19.965 Y8.199 F1000
G0 X19.965 Y8.199
G1 X19.926 Y8.218 F1000
G0 X19.926 Y8.218
G1 X19.881 Y8.229 F1000
G0 X19.881 Y8.229
G1 X19.832 Y8.230 F1000
G0 X19.832 Y8.230
G1 X19.780 Y8.221 F1000
G0 X19.780 Y8.221
G1 X19.727 Y8.199 F1000
G0 X19.727 Y8.199
G1 X19.677 Y8.166 F1000
G0 X19.677 Y8.166
G1 X19.632 Y8.121 F1000
G0 X19.632 Y8.121
G1 X19.594 Y8.065 F1000
G0 X19.594 Y8.065
G1 X19.566 Y8.000 F1000
G0 X19.566 Y8.000
G1 X19.550 Y7.927 F1000
G0 X19.550 Y7.927
G1 X19.548 Y7.848 F1000
G0 X19.548 Y7.848
G1 X19.562 Y7.767 F1000
G0 X19.562 Y7.767
G1 X19.591 Y7.687 F1000
G0 X19.591 Y7.687
G1 X19.637 Y7.610 F1000
G0 X19.637 Y7.610
G1 X19.699 Y7.539 F1000
G0 X19.699 Y7.539
G1 X19.775 Y7.479 F1000
G0 X19.775 Y7.479
G1 X19.865 Y7.433 F1000
G0 X19.865 Y7.433
G1 X19.965 Y7.402 F1000
G0 X19.965 Y7.402
G1 X20.073 Y7.389 F1000
G0 X20.073 Y7.389
G1 X20.185 Y7.396 F1000
G0 X20.185 Y7.396
G1 X20.297 Y7.424 F1000
G0 X20.297 Y7.424
G1 X20.406 Y7.474 F1000
G0 X20.406 Y7.474
G1 X20.508 Y7.544 F1000
G0 X20.508 Y7.544
G1 X20.598 Y7.634 F1000
G0 X20.598 Y7.634
G1 X20.673 Y7.742 F1000
G0 X20.673 Y7.742
G1 X20.729 Y7.865 F1000
G0 X20.729 Y7.865
G1 X20.762 Y8.000 F1000
G0 X20.762 Y8.000
G1 X20.772 Y8.142 F1000
G0 X20.772 Y8.142
G1 X20.756 Y8.288 F1000
G0 X20.756 Y8.288
G1 X20.713 Y8.432 F1000
G0 X20.713 Y8.432
G1 X20.644 Y8.570 F1000
G0 X20.644 Y8.570
G1 X20.549 Y8.696 F1000
G0 X20.549 Y8.696
G1 X20.430 Y8.806 F1000
G0 X20.430 Y8.806
G1 X20.291 Y8.895 F1000
G0 X20.291 Y8.895
G1 X20.134 Y8.960 F1000
G0 X20.134 Y8.960
G1 X19.965 Y8.997 F1000
G0 X19.965 Y8.997
G1 X19.788 Y9.004 F1000
G0 X19.788 Y9.004
G1 X19.609 Y8.979 F1000
G0 X19.609 Y8.979
G1 X19.433 Y8.921 F1000
G0 X19.433 Y8.921
G1 X19.267 Y8.832 F1000
G0 X19.267 Y8.832
G1 X19.116 Y8.712 F1000
G0 X19.116 Y8.712
G1 X18.986 Y8.565 F1000
G0 X18.986 Y8.565
G1 X18.882 Y8.394 F1000
G0 X18.882 Y8.394
G1 X18.808 Y8.204 F1000
G0 X18.808 Y8.204
G1 X18.768 Y8.000 F1000
G0 X18.768 Y8.000
G1 X18.765 Y7.788 F1000
G0 X18.765 Y7.788
G1 X18.799 Y7.576 F1000
G0 X18.799 Y7.576
G1 X18.871 Y7.369 F1000
G0 X18.871 Y7.369
G1 X18.980 Y7.174 F1000
G0 X18.980 Y7.174
G1 X19.125 Y6.999 F1000
G0 X19.125 Y6.999
G1 X19.300 Y6.849 F1000
G0 X19.300 Y6.849
G1 X19.503 Y6.730 F1000
G0 X19.503 Y6.730
G1 X19.726 Y6.647 F1000
G0 X19.726 Y6.647
G1 X19.965 Y6.604 F1000
G0 X19.965 Y6.604
G1 X20.211 Y6.603 F1000
G0 X20.211 Y6.603
G1 X20.457 Y6.647 F1000
G0 X20.457 Y6.647
G1 X20.696 Y6.734 F1000
G0 X20.696 Y6.734
G1 X20.919 Y6.863 F1000
G0 X20.919 Y6.863
G1 X21.119 Y7.032 F1000
G0 X21.119 Y7.032
G1 X21.289 Y7.236 F1000
G0 X21.289 Y7.236
G1 X21.422 Y7.470 F1000
G0 X21.422 Y7.470
G1 X21.514 Y7.727 F1000
G0 X21.514 Y7.727
G1 X21.560 Y8.000 F1000
G0 X21.560 Y8.000
G1 X21.558 Y8.281 F1000
G0 X21.558 Y8.281
G1 X21.506 Y8.561 F1000
G0 X21.506 Y8.561
G1 X21.404 Y8.831 F1000
G0 X21.404 Y8.831
G1 X21.255 Y9.082 F1000
G0 X21.255 Y9.082
G1 X21.062 Y9.307 F1000
G0 X21.062 Y9.307
G1 X20.829 Y9.497 F1000
G0 X20.829 Y9.497
G1 X20.564 Y9.645 F1000
G0 X20.564 Y9.645
G1 X20.273 Y9.746 F1000
G0 X20.273 Y9.746
G1 X19.965 Y9.795 F1000
G0 X19.965 Y9.795
G1 X19.649 Y9.789 F1000
G0 X19.649 Y9.789
G1 X19.336 Y9.728 F1000
G0 X19.336 Y9.728
G1 X19.034 Y9.612 F1000
G0 X19.034 Y9.612
G1 X18.754 Y9.443 F1000
G0 X18.754 Y9.443
G1 X18.505 Y9.225 F1000
G0 X18.505 Y9.225
G1 X18.295 Y8.964 F1000
G0 X18.295 Y8.964
G1 X18.133 Y8.667 F1000
G0 X18.133 Y8.667
G1 X18.023 Y8.342 F1000
G0 X18.023 Y8.342
G1 X17.971 Y8.000 F1000
G0 X17.971 Y8.000
G1 X17.979 Y7.650 F1000
G0 X17.979 Y7.650
G1 X18.049 Y7.303 F1000
G0 X18.049 Y7.303
G1 X18.180 Y6.970 F1000
G0 X18.180 Y6.970
G1 X18.369 Y6.661 F1000
G0 X18.369 Y6.661
G1 X18.612 Y6.388 F1000
G0 X18.612 Y6.388
G1 X18.901 Y6.158 F1000
G0 X18.901 Y6.158
G1 X19.230 Y5.980 F1000
G0 X19.230 Y5.980
G1 X19.588 Y5.862 F1000
G0 X19.588 Y5.862
G1 X19.965 Y5.806 F1000
G0 X19.965 Y5.806
G1 X20.350 Y5.818 F1000
G0 X20.350 Y5.818
G1 X20.730 Y5.897 F1000
G0 X20.730 Y5.897
G1 X21.095 Y6.043 F1000
G0 X21.095 Y6.043
G1 X21.432 Y6.252 F1000
G0 X21.432 Y6.252
G1 X21.730 Y6.519 F1000
G0 X21.730 Y6.519
G1 X21.980 Y6.837 F1000
G0 X21.980 Y6.837
G1 X22.172 Y7.197 F1000
G0 X22.172 Y7.197
G1 X22.300 Y7.588 F1000
G0 X22.300 Y7.588
G1 X22.358 Y8.000 F1000
G0 X22.358 Y8.000
G1 X22.343 Y8.419 F1000
G0 X22.343 Y8.419
G1 X22.255 Y8.834 F1000
G0 X22.255 Y8.834
G1 X22.095 Y9.230 F1000
G0 X22.095 Y9.230
G1 X21.866 Y9.595 F1000
G0 X21.866 Y9.595
G1 X21.574 Y9.918 F1000
G0 X21.574 Y9.918
G1 X21.228 Y10.188 F1000
G0 X21.228 Y10.188
G1 X20.836 Y10.394 F1000
G0 X20.836 Y10.394
G1 X20.411 Y10.531 F1000
G0 X20.411 Y10.531
G1 X19.965 Y10.592 F1000
G0 X19.965 Y10.592
G1 X19.511 Y10.575 F1000
G0 X19.511 Y10.575
G1 X19.063 Y10.478 F1000
G0 X19.063 Y10.478
G1 X18.635 Y10.303 F1000
G0 X18.635 Y10.303
G1 X18.242 Y10.054 F1000
G0 X18.242 Y10.054
G1 X17.894 Y9.738 F1000
G0 X17.894 Y9.738
G1 X17.605 Y9.363 F1000
G0 X17.605 Y9.363
G1 X17.383 Y8.940 F1000
G0 X17.383 Y8.940
G1 X17.237 Y8.481 F1000
G0 X17.237 Y8.481
G1 X17.173 Y8.000 F1000
G0 X17.173 Y8.000
G1 X17.194 Y7.511 F1000
G0 X17.194 Y7.511
G1 X17.300 Y7.030 F1000
G0 X17.300 Y7.030
G1 X17.490 Y6.571 F1000
G0 X17.490 Y6.571
G1 X17.758 Y6.148 F1000
G0 X17.758 Y6.148
G1 X18.099 Y5.776 F1000
G0 X18.099 Y5.776
G1 X18.502 Y5.467 F1000
G0 X18.502 Y5.467
G1 X18.957 Y5.231 F1000
G0 X18.957 Y5.231
G1 X19.449 Y5.076 F1000
G0 X19.449 Y5.076
G1 X19.965 Y5.009 F1000
G0 X19.965 Y5.009
G1 X20.488 Y5.032 F1000
G0 X20.488 Y5.032
G1 X21.003 Y5.148 F1000
G0 X21.003 Y5.148
G1 X21.494 Y5.352 F1000
G0 X21.494 Y5.352
G1 X21.945 Y5.641 F1000
G0 X21.945 Y5.641
G1 X22.341 Y6.006 F1000
G0 X22.341 Y6.006
G1 X22.670 Y6.438 F1000
G0 X22.670 Y6.438
G1 X22.921 Y6.924 F1000
G0 X22.921 Y6.924
G1 X23.085 Y7.450 F1000
G0 X23.085 Y7.450
G1 X23.155 Y8.000 F1000
G0 X23.155 Y8.000
G1 X23.129 Y8.558 F1000
G0 X23.129 Y8.558
G1 X23.005 Y9.106 F1000
G0 X23.005 Y9.106
G1 X22.786 Y9.629 F1000
G0 X22.786 Y9.629
G1 X22.477 Y10.108 F1000
G0 X22.477 Y10.108
G1 X22.087 Y10.529 F1000
G0 X22.087 Y10.529
G1 X21.627 Y10.878 F1000
G0 X21.627 Y10.878
G1 X21.109 Y11.144 F1000
G0 X21.109 Y11.144
G1 X20.550 Y11.317 F1000
G0 X20.550 Y11.317
G1 X19.965 Y11.390 F1000
G0 X19.965 Y11.390
G1 X19.372 Y11.360 F1000
G0 X19.372 Y11.360
G1 X18.790 Y11.227 F1000
G0 X18.790 Y11.227
G1 X18.237 Y10.993 F1000
G0 X18.237 Y10.993
G1 X17.729 Y10.665 F1000
G0 X17.729 Y10.665
G1 X17.283 Y10.250 F1000
G0 X17.283 Y10.250
G1 X16.914 Y9.761 F1000
G0 X16.914 Y9.761
G1 X16.634 Y9.213 F1000
G0 X16.634 Y9.213
G1 X16.452 Y8.619 F1000
G0 X16.452 Y8.619
G1 X16.375 Y8.000 F1000
G0 X16.375 Y8.000
G1 X16.408 Y7.373 F1000
G0 X16.408 Y7.373
G1 X16.550 Y6.757 F1000
G0 X16.550 Y6.757
G1 X16.799 Y6.172 F1000
G0 X16.799 Y6.172
G1 X17.147 Y5.636 F1000
G0 X17.147 Y5.636
G1 X17.586 Y5.165 F1000
G0 X17.586 Y5.165
G1 X18.104 Y4.776 F1000
G0 X18.104 Y4.776
G1 X18.684 Y4.481 F1000
G0 X18.684 Y4.481
G1 X19.311 Y4.291 F1000
G0 X19.311 Y4.291
G1 X19.965 Y4.211 F1000
G0 X19.965 Y4.211
G1 X20.627 Y4.247 F1000
G0 X20.627 Y4.247
G1 X21.276 Y4.398 F1000
G0 X21.276 Y4.398
G1 X21.893 Y4.661 F1000
G0 X21.893 Y4.661
G1 X22.457 Y5.030 F1000
G0 X22.457 Y5.030
G1 X22.952 Y5.493 F1000
G0 X22.952 Y5.493
G1 X23.361 Y6.039 F1000
G0 X23.361 Y6.039
G1 X23.671 Y6.651 F1000
G0 X23.671 Y6.651
G1 X23.871 Y7.311 F1000
G0 X23.871 Y7.311
G1 X23.953 Y8.000 F1000
G0 X23.953 Y8.000
G1 X23.914 Y8.696 F1000
G0 X23.914 Y8.696
G1 X23.754 Y9.379 F1000
G0 X23.754 Y9.379
G1 X23.476 Y10.027 F1000
G0 X23.476 Y10.027
G1 X23.088 Y10.621 F1000
G0 X23.088 Y10.621
G1 X22.600 Y11.140 F1000
G0 X22.600 Y11.140
G1 X22.025 Y11.569 F1000
G0 X22.025 Y11.569
G1 X21.382 Y11.894 F1000
G0 X18.517 Y11.977
G1 X17.838 Y11.684 F1000
G0 X17.838 Y11.684
G1 X17.216 Y11.276 F1000
G0 X17.216 Y11.276
G1 X16.672 Y10.763 F1000
G0 X16.672 Y10.763
G1 X16.223 Y10.160 F1000
G0 X16.223 Y10.160
G1 X15.884 Y9.485 F1000
G0 X15.884 Y9.485
G1 X15.666 Y8.758 F1000
G0 X15.666 Y8.758
G1 X15.578 Y8.000 F1000
G0 X15.578 Y8.000
G1 X15.623 Y7.234 F1000
G0 X15.623 Y7.234
G1 X15.801 Y6.484 F1000
G0 X15.801 Y6.484
G1 X16.108 Y5.773 F1000
G0 X16.108 Y5.773
G1 X16.536 Y5.123 F1000
G0 X16.536 Y5.123
G1 X17.074 Y4.554 F1000
G0 X17.074 Y4.554
G1 X17.705 Y4.086 F1000
G0 X22.970 Y4.419
G1 X23.563 Y4.981 F1000
G0 X23.563 Y4.981
G1 X24.052 Y5.640 F1000
G0 X24.052 Y5.640
G1 X24.421 Y6.378 F1000
G0 X24.421 Y6.378
G1 X24.656 Y7.173 F1000
G0 X24.656 Y7.173
G1 X24.751 Y8.000 F1000
G0 X24.751 Y8.000
G1 X24.700 Y8.835 F1000
G0 X24.700 Y8.835
G1 X24.504 Y9.652 F1000
G0 X24.504 Y9.652
G1 X24.167 Y10.426 F1000
G0 X24.167 Y10.426
G1 X23.699 Y11.133 F1000
G0 X23.699 Y11.133
G1 X23.112 Y11.751 F1000
G0 X15.532 Y10.559
G1 X15.134 Y9.758 F1000
G0 X15.134 Y9.758
G1 X14.881 Y8.896 F1000
G0 X14.881 Y8.896
G1 X14.780 Y8.000 F1000
G0 X14.780 Y8.000
G1 X14.837 Y7.096 F1000
G0 X14.837 Y7.096
G1 X15.051 Y6.212 F1000
G0 X15.051 Y6.212
G1 X15.417 Y5.374 F1000
G0 X15.417 Y5.374
G1 X15.925 Y4.610 F1000
G0 X24.174 Y4.468
G1 X24.743 Y5.241 F1000
G0 X24.743 Y5.241
G1 X25.170 Y6.105 F1000
G0 X25.170 Y6.105
G1 X25.442 Y7.034 F1000
G0 X25.442 Y7.034
G1 X25.548 Y8.000 F1000
G0 X25.548 Y8.000
G1 X25.485 Y8.973 F1000
G0 X25.485 Y8.973
G1 X25.253 Y9.925 F1000
G0 X25.253 Y9.925
G1 X24.858 Y10.825 F1000
G0 X24.858 Y10.825
G1 X24.310 Y11.646 F1000
G0 X14.095 Y9.035
G1 X13.982 Y8.000 F1000
G0 X13.982 Y8.000
G1 X14.051 Y6.957 F1000
G0 X14.051 Y6.957
G1 X14.302 Y5.939 F1000
G0 X14.302 Y5.939
G1 X14.726 Y4.976 F1000
G0 X14.726 Y4.976
G1 X15.314 Y4.098 F1000
G0 X25.434 Y4.843
G1 X25.920 Y5.833 F1000
G0 X25.920 Y5.833
G1 X26.227 Y6.896 F1000
G0 X26.227 Y6.896
G1 X26.346 Y8.000 F1000
G0 X26.346 Y8.000
G1 X26.271 Y9.112 F1000
G0 X26.271 Y9.112
G1 X26.003 Y10.198 F1000
G0 X26.003 Y10.198
G1 X25.549 Y11.224 F1000
G0 X13.185 Y8.000
G1 X13.266 Y6.819 F1000
G0 X13.266 Y6.819
G1 X13.552 Y5.666 F1000
G0 X13.552 Y5.666
G1 X14.036 Y4.577 F1000
G0 X26.124 Y4.444
G1 X26.669 Y5.560 F1000
G0 X26.669 Y5.560
G1 X27.013 Y6.757 F1000
G0 X27.013 Y6.757
G1 X27.144 Y8.000 F1000
G0 X27.144 Y8.000
G1 X27.057 Y9.250 F1000
G0 X27.057 Y9.250
G1 X26.752 Y10.470 F1000
G0 X26.752 Y10.470
G1 X26.240 Y11.623 F1000
G0 X12.480 Y6.680
G1 X12.802 Y5.393 F1000
G0 X12.802 Y5.393
G1 X13.345 Y4.178 F1000
G0 X26.815 Y4.045
G1 X27.419 Y5.287 F1000
G0 X27.419 Y5.287
G1 X27.798 Y6.619 F1000
G0 X27.798 Y6.619
G1 X27.941 Y8.000 F1000
G0 X27.941 Y8.000
G1 X27.842 Y9.389 F1000
G0 X27.842 Y9.389
G1 X27.502 Y10.743 F1000
G0 X11.695 Y6.542
G1 X12.053 Y5.120 F1000
G0 X28.168 Y5.014
G1 X28.584 Y6.480 F1000
G0 X28.584 Y6.480
G1 X28.739 Y8.000 F1000
G0 X10.909 Y6.403
G1 X11.303 Y4.847 F1000
G0 X28.918 Y4.741
G1 X29.369 Y6.342 F1000
G0 X29.667 Y4.469
G1 X30.155 Y6.203 F1000

; Rect1 ∩ Rect2 (Rectilinear 90°)
G0 X44.424 Y14.000
G1 X33.587 Y14.000 F1000
G0 X43.083 Y16.000
G1 X31.705 Y16.000 F1000
G0 X41.742 Y18.000
G1 X29.823 Y18.000 F1000
G0 X23.645 Y18.000
G1 X23.001 Y18.000 F1000
G0 X40.401 Y20.000
G1 X27.941 Y20.000 F1000
G0 X25.882 Y20.000
G1 X21.730 Y20.000 F1000
G0 X39.060 Y22.000
G1 X20.459 Y22.000 F1000

; Rect1 ∩ Triangle (Rectilinear 120°)
G0 X26.337 Y12.769
G1 X25.005 Y12.000 F1000
G0 X25.260 Y14.457
G1 X21.005 Y12.000 F1000
G0 X24.184 Y16.145
G1 X17.005 Y12.000 F1000

; Triple Intersection (Concentric)
G0 X29.352 Y18.500
G1 X29.247 Y18.497 F1000
G0 X29.247 Y18.497
G1 X29.143 Y18.489 F1000
G0 X29.143 Y18.489
G1 X29.039 Y18.475 F1000
G0 X29.039 Y18.475
G1 X28.936 Y18.456 F1000
G0 X28.936 Y18.456
G1 X28.834 Y18.432 F1000
G0 X28.834 Y18.432
G1 X28.734 Y18.402 F1000
G0 X28.734 Y18.402
G1 X28.635 Y18.367 F1000
G0 X28.635 Y18.367
G1 X28.538 Y18.327 F1000
G0 X28.538 Y18.327
G1 X28.444 Y18.282 F1000
G0 X28.444 Y18.282
G1 X28.352 Y18.232 F1000
G0 X28.352 Y18.232
G1 X28.262 Y18.177 F1000
G0 X28.262 Y18.177
G1 X28.176 Y18.118 F1000
G0 X28.176 Y18.118
G1 X28.093 Y18.054 F1000
G0 X28.093 Y18.054
G1 X28.013 Y17.986 F1000
G0 X28.013 Y17.986
G1 X27.937 Y17.914 F1000
G0 X27.937 Y17.914
G1 X27.865 Y17.838 F1000
G0 X27.865 Y17.838
G1 X27.797 Y17.759 F1000
G0 X27.797 Y17.759
G1 X27.734 Y17.676 F1000
G0 X27.734 Y17.676
G1 X27.674 Y17.589 F1000
G0 X27.674 Y17.589
G1 X27.620 Y17.500 F1000
G0 X27.620 Y17.500
G1 X27.570 Y17.408 F1000
G0 X27.570 Y17.408
G1 X27.524 Y17.313 F1000
G0 X27.524 Y17.313
G1 X27.484 Y17.217 F1000
G0 X27.484 Y17.217
G1 X27.449 Y17.118 F1000
G0 X27.449 Y17.118
G1 X27.420 Y17.018 F1000
G0 X27.420 Y17.018
G1 X27.395 Y16.916 F1000
G0 X27.395 Y16.916
G1 X27.376 Y16.813 F1000
G0 X27.376 Y16.813
G1 X27.363 Y16.709 F1000
G0 X27.363 Y16.709
G1 X27.354 Y16.605 F1000
G0 X27.354 Y16.605
G1 X27.352 Y16.500 F1000
G0 X27.352 Y16.500
G1 X27.354 Y16.395 F1000
G0 X27.354 Y16.395
G1 X27.363 Y16.291 F1000
G0 X27.363 Y16.291
G1 X27.376 Y16.187 F1000
G0 X27.376 Y16.187
G1 X27.395 Y16.084 F1000
G0 X27.395 Y16.084
G1 X27.420 Y15.982 F1000
G0 X27.420 Y15.982
G1 X27.449 Y15.882 F1000
G0 X27.449 Y15.882
G1 X27.484 Y15.783 F1000
G0 X27.484 Y15.783
G1 X27.524 Y15.687 F1000
G0 X27.524 Y15.687
G1 X27.570 Y15.592 F1000
G0 X27.570 Y15.592
G1 X27.620 Y15.500 F1000
G0 X27.620 Y15.500
G1 X27.674 Y15.411 F1000
G0 X27.674 Y15.411
G1 X27.734 Y15.324 F1000
G0 X27.734 Y15.324
G1 X27.797 Y15.241 F1000
G0 X27.797 Y15.241
G1 X27.865 Y15.162 F1000
G0 X27.865 Y15.162
G1 X27.937 Y15.086 F1000
G0 X27.937 Y15.086
G1 X28.013 Y15.014 F1000
G0 X28.013 Y15.014
G1 X28.093 Y14.946 F1000
G0 X28.093 Y14.946
G1 X28.176 Y14.882 F1000
G0 X28.176 Y14.882
G1 X28.262 Y14.823 F1000
G0 X28.262 Y14.823
G1 X28.352 Y14.768 F1000
G0 X28.352 Y14.768
G1 X28.444 Y14.718 F1000
G0 X28.444 Y14.718
G1 X28.538 Y14.673 F1000
G0 X28.538 Y14.673
G1 X28.635 Y14.633 F1000
G0 X28.635 Y14.633
G1 X28.734 Y14.598 F1000
G0 X28.734 Y14.598
G1 X28.834 Y14.568 F1000
G0 X28.834 Y14.568
G1 X28.936 Y14.544 F1000
G0 X28.936 Y14.544
G1 X29.039 Y14.525 F1000
G0 X29.039 Y14.525
G1 X29.143 Y14.511 F1000
G0 X29.143 Y14.511
G1 X29.247 Y14.503 F1000
G0 X29.247 Y14.503
G1 X29.352 Y14.500 F1000
G0 X29.352 Y14.500
G1 X29.456 Y14.503 F1000
G0 X29.456 Y14.503
G1 X29.561 Y14.511 F1000
G0 X29.561 Y14.511
G1 X29.664 Y14.525 F1000
G0 X29.664 Y14.525
G1 X29.767 Y14.544 F1000
G0 X29.767 Y14.544
G1 X29.869 Y14.568 F1000
G0 X29.869 Y14.568
G1 X29.970 Y14.598 F1000
G0 X29.970 Y14.598
G1 X30.068 Y14.633 F1000
G0 X30.068 Y14.633
G1 X30.165 Y14.673 F1000
G0 X30.165 Y14.673
G1 X30.260 Y14.718 F1000
G0 X30.260 Y14.718
G1 X30.352 Y14.768 F1000
G0 X30.352 Y14.768
G1 X30.441 Y14.823 F1000
G0 X30.441 Y14.823
G1 X30.527 Y14.882 F1000
G0 X30.527 Y14.882
G1 X30.610 Y14.946 F1000
G0 X30.610 Y14.946
G1 X30.690 Y15.014 F1000
G0 X30.690 Y15.014
G1 X30.766 Y15.086 F1000
G0 X30.766 Y15.086
G1 X30.838 Y15.162 F1000
G0 X30.838 Y15.162
G1 X30.906 Y15.241 F1000
G0 X30.906 Y15.241
G1 X30.970 Y15.324 F1000
G0 X30.970 Y15.324
G1 X31.029 Y15.411 F1000
G0 X31.029 Y15.411
G1 X31.084 Y15.500 F1000
G0 X31.084 Y15.500
G1 X31.134 Y15.592 F1000
G0 X31.134 Y15.592
G1 X31.179 Y15.687 F1000
G0 X31.179 Y15.687
G1 X31.219 Y15.783 F1000
G0 X31.219 Y15.783
G1 X31.254 Y15.882 F1000
G0 X31.254 Y15.882
G1 X31.283 Y15.982 F1000
G0 X31.283 Y15.982
G1 X31.308 Y16.084 F1000
G0 X31.308 Y16.084
G1 X31.327 Y16.187 F1000
G0 X31.327 Y16.187
G1 X31.341 Y16.291 F1000
G0 X27.725 Y20.154
G1 X27.536 Y20.064 F1000
G0 X27.536 Y20.064
G1 X27.352 Y19.964 F1000
G0 X27.352 Y19.964
G1 X27.173 Y19.855 F1000
G0 X27.173 Y19.855
G1 X27.000 Y19.736 F1000
G0 X27.000 Y19.736
G1 X26.834 Y19.609 F1000
G0 X26.834 Y19.609
G1 X26.675 Y19.473 F1000
G0 X26.675 Y19.473
G1 X26.523 Y19.328 F1000
G0 X26.523 Y19.328
G1 X26.379 Y19.177 F1000
G0 X26.379 Y19.177
G1 X26.243 Y19.017 F1000
G0 X26.243 Y19.017
G1 X26.115 Y18.851 F1000
G0 X26.115 Y18.851
G1 X25.997 Y18.679 F1000
G0 X25.997 Y18.679
G1 X25.887 Y18.500 F1000
G0 X25.887 Y18.500
G1 X25.788 Y18.316 F1000
G0 X25.788 Y18.316
G1 X25.697 Y18.127 F1000
G0 X25.697 Y18.127
G1 X25.617 Y17.933 F1000
G0 X25.617 Y17.933
G1 X25.547 Y17.736 F1000
G0 X25.547 Y17.736
G1 X25.488 Y17.535 F1000
G0 X25.488 Y17.535
G1 X25.439 Y17.332 F1000
G0 X25.439 Y17.332
G1 X25.401 Y17.126 F1000
G0 X25.401 Y17.126
G1 X25.373 Y16.918 F1000
G0 X25.373 Y16.918
G1 X25.357 Y16.709 F1000
G0 X25.357 Y16.709
G1 X25.352 Y16.500 F1000
G0 X25.352 Y16.500
G1 X25.357 Y16.291 F1000
G0 X25.357 Y16.291
G1 X25.373 Y16.082 F1000
G0 X25.373 Y16.082
G1 X25.401 Y15.874 F1000
G0 X25.401 Y15.874
G1 X25.439 Y15.668 F1000
G0 X25.439 Y15.668
G1 X25.488 Y15.465 F1000
G0 X25.488 Y15.465
G1 X25.547 Y15.264 F1000
G0 X25.547 Y15.264
G1 X25.617 Y15.067 F1000
G0 X25.617 Y15.067
G1 X25.697 Y14.873 F1000
G0 X25.697 Y14.873
G1 X25.788 Y14.684 F1000
G0 X25.788 Y14.684
G1 X25.887 Y14.500 F1000
G0 X25.887 Y14.500
G1 X25.997 Y14.321 F1000
G0 X25.997 Y14.321
G1 X26.115 Y14.149 F1000
G0 X26.115 Y14.149
G1 X26.243 Y13.983 F1000
G0 X26.243 Y13.983
G1 X26.379 Y13.823 F1000
G0 X26.379 Y13.823
G1 X26.523 Y13.672 F1000
G0 X26.523 Y13.672
G1 X26.675 Y13.527 F1000
G0 X26.675 Y13.527
G1 X26.834 Y13.391 F1000
G0 X26.834 Y13.391
G1 X27.000 Y13.264 F1000
G0 X27.000 Y13.264
G1 X27.173 Y13.145 F1000
G0 X27.173 Y13.145
G1 X27.352 Y13.036 F1000
G0 X27.352 Y13.036
G1 X27.536 Y12.936 F1000
G0 X27.536 Y12.936
G1 X27.725 Y12.846 F1000
G0 X27.725 Y12.846
G1 X27.918 Y12.766 F1000
G0 X27.918 Y12.766
G1 X28.115 Y12.696 F1000
G0 X28.115 Y12.696
G1 X28.316 Y12.636 F1000
G0 X28.316 Y12.636
G1 X28.520 Y12.587 F1000
G0 X28.520 Y12.587
G1 X28.726 Y12.549 F1000
G0 X28.726 Y12.549
G1 X28.933 Y12.522 F1000
G0 X28.933 Y12.522
G1 X29.142 Y12.505 F1000
G0 X29.142 Y12.505
G1 X29.352 Y12.500 F1000
G0 X29.352 Y12.500
G1 X29.561 Y12.505 F1000
G0 X29.561 Y12.505
G1 X29.770 Y12.522 F1000
G0 X29.770 Y12.522
G1 X29.977 Y12.549 F1000
G0 X29.977 Y12.549
G1 X30.183 Y12.587 F1000
G0 X30.183 Y12.587
G1 X30.387 Y12.636 F1000
G0 X30.387 Y12.636
G1 X30.588 Y12.696 F1000
G0 X30.588 Y12.696
G1 X30.785 Y12.766 F1000
G0 X30.785 Y12.766
G1 X30.979 Y12.846 F1000
G0 X30.979 Y12.846
G1 X31.168 Y12.936 F1000
G0 X31.168 Y12.936
G1 X31.352 Y13.036 F1000
G0 X31.352 Y13.036
G1 X31.530 Y13.145 F1000
G0 X31.530 Y13.145
G1 X31.703 Y13.264 F1000
G0 X31.703 Y13.264
G1 X31.869 Y13.391 F1000
G0 X31.869 Y13.391
G1 X32.028 Y13.527 F1000
G0 X32.028 Y13.527
G1 X32.180 Y13.672 F1000
G0 X32.180 Y13.672
G1 X32.324 Y13.823 F1000
G0 X32.324 Y13.823
G1 X32.460 Y13.983 F1000
G0 X32.460 Y13.983
G1 X32.588 Y14.149 F1000
G0 X32.588 Y14.149
G1 X32.706 Y14.321 F1000
G0 X32.706 Y14.321
G1 X32.816 Y14.500 F1000
G0 X32.816 Y14.500
G1 X32.916 Y14.684 F1000
G0 X23.483 Y17.747
G1 X23.425 Y17.439 F1000
G0 X33.366 Y12.041
G1 X33.594 Y12.257 F1000
G0 X33.594 Y12.257
G1 X33.810 Y12.485 F1000
G0 X33.810 Y12.485
G1 X34.014 Y12.724 F1000
G0 X34.014 Y12.724
G1 X34.206 Y12.973 F1000

; End of G-code
G1 Z10 F1000 ; Raise Z
M84 ; Disable motors
